fs/wifi_off_20_regular.svg

<svg viewBox="0 0 20 20" fill="none" xmlns="http://www.w3.org/2000/svg" height="1em" width="1em">
  <path d="M2.85355 2.14645C2.65829 1.95118 2.34171 1.95118 2.14645 2.14645C1.95118 2.34171 1.95118 2.65829 2.14645 2.85355L5.1773 5.88441C4.48554 6.29026 3.83364 6.78996 3.24007 7.38354C2.84691 7.7767 2.46499 8.2437 2.11852 8.74312C1.96112 8.97001 2.01745 9.28154 2.24434 9.43894C2.47123 9.59634 2.78276 9.54001 2.94016 9.31312C3.25435 8.86023 3.59894 8.43888 3.94718 8.09064C4.54384 7.49398 5.20627 7.00318 5.91113 6.61824L7.34652 8.05363C6.66879 8.36442 6.03385 8.79887 5.47574 9.35698C4.98718 9.84554 4.5888 10.3969 4.28256 11.0024C4.15792 11.2488 4.25664 11.5496 4.50306 11.6742C4.74947 11.7989 5.05027 11.7002 5.17491 11.4537C5.43352 10.9425 5.76947 10.4775 6.18285 10.0641C6.74863 9.49831 7.40785 9.08293 8.11085 8.81795L9.96637 10.6735C8.95773 10.6909 7.95438 11.0845 7.18471 11.8541C6.83108 12.2078 6.54876 12.6313 6.34462 13.0978C6.23393 13.3508 6.34928 13.6456 6.60226 13.7563C6.85524 13.867 7.15006 13.7517 7.26076 13.4987C7.41631 13.1432 7.62912 12.8239 7.89182 12.5612C8.78475 11.6683 10.0959 11.4485 11.1947 11.9019L12.8407 13.5478C12.888 13.6348 12.9582 13.7028 13.0404 13.7475L17.1464 17.8536C17.3417 18.0488 17.6583 18.0488 17.8536 17.8536C18.0488 17.6583 18.0488 17.3417 17.8536 17.1464L2.85355 2.14645ZM9.60341 7.4823L10.6201 8.49897C11.8145 8.62685 12.9747 9.14855 13.8902 10.0641C14.2864 10.4603 14.6351 10.9488 14.9008 11.4684C15.0266 11.7143 15.3278 11.8116 15.5737 11.6859C15.8195 11.5601 15.9169 11.2589 15.7911 11.013C15.4791 10.403 15.0697 9.82931 14.5973 9.35698C13.2277 7.98732 11.3953 7.36243 9.60341 7.4823ZM7.1356 5.01449L7.94577 5.82466C10.7822 5.11775 13.9083 5.87307 16.1259 8.09064C16.4915 8.45627 16.8399 8.87775 17.143 9.317C17.2999 9.54426 17.6113 9.60135 17.8385 9.44449C18.0658 9.28764 18.1229 8.97624 17.966 8.74897C17.6293 8.26103 17.2424 7.79293 16.833 7.38354C14.2091 4.75961 10.4455 3.96992 7.1356 5.01449ZM10.9637 13.7868C11.4708 14.2938 11.4708 15.1159 10.9637 15.623C10.4566 16.1301 9.63452 16.1301 9.12746 15.623C8.62039 15.1159 8.62039 14.2938 9.12746 13.7868C9.63452 13.2797 10.4566 13.2797 10.9637 13.7868Z" fill="#212121"/>
</svg>

<svg viewBox="0 0 20 20" fill="none" xmlns="http://www.w3.org/2000/svg" height="1em" width="1em">
  <path d="M2.854 2.146a.5.5 0 1 0-.708.708l3.031 3.03a9.628 9.628 0 0 0-1.937 1.5 9.94 9.94 0 0 0-1.121 1.36.5.5 0 0 0 .821.57A9.02 9.02 0 0 1 3.947 8.09a8.614 8.614 0 0 1 1.964-1.473l1.436 1.436a6.437 6.437 0 0 0-1.871 1.303 6.408 6.408 0 0 0-1.193 1.645.5.5 0 1 0 .892.452 5.41 5.41 0 0 1 1.008-1.39A5.43 5.43 0 0 1 8.11 8.818l1.855 1.856a4.02 4.02 0 0 0-2.781 1.18 4.05 4.05 0 0 0-.84 1.244.5.5 0 0 0 .916.4c.155-.355.368-.674.63-.937a3.034 3.034 0 0 1 3.304-.66l1.646 1.647a.497.497 0 0 0 .2.2l4.105 4.106a.5.5 0 0 0 .708-.708l-15-15Zm6.75 5.336L10.62 8.5a5.427 5.427 0 0 1 3.27 1.565 5.63 5.63 0 0 1 1.01 1.404.5.5 0 0 0 .891-.455 6.635 6.635 0 0 0-1.194-1.656 6.435 6.435 0 0 0-4.994-1.875ZM7.135 5.014l.81.81a8.607 8.607 0 0 1 9.197 3.493.5.5 0 0 0 .823-.568 9.61 9.61 0 0 0-10.83-3.734Zm3.828 8.773a1.298 1.298 0 1 1-1.836 1.836 1.298 1.298 0 0 1 1.836-1.836Z" fill="#212121"/>
</svg>
